assets/images/ywc18/icon/ywc_facebook.svg

<svg width="52" height="52" fill="none" xmlns="http://www.w3.org/2000/svg"><circle cx="26" cy="26" r="25" stroke="#F2F6FC" stroke-opacity=".8" stroke-width="2"/><path d="M34.3333 21.3031h-5.582v-3.1818c0-1.6418.1331-2.6759 2.4751-2.6759h2.958v-5.0591c-1.4394-.1495-2.8867-.2227-4.3357-.2195-4.2961 0-7.4315 2.6361-7.4315 7.4756v3.6607h-4.7506v6.3636l4.7506-.0016v14.3198h6.3341V27.662l4.8552-.0016.7268-6.3573z" stroke="#F2F6FC" stroke-opacity=".8" stroke-width="2"/></svg>

<svg width="52" height="52" viewBox="0 0 52 52" fill="none" xmlns="http://www.w3.org/2000/svg">
<circle cx="26" cy="26" r="25" stroke="#F2F6FC" stroke-opacity="0.8" stroke-width="2"/>
<path d="M34.3333 21.3031H28.7513V18.1213C28.7513 16.4795 28.8844 15.4454 31.2264 15.4454H34.1844V10.3863C32.745 10.2368 31.2977 10.1636 29.8487 10.1668C25.5526 10.1668 22.4172 12.8029 22.4172 17.6424V21.3031H17.6666V27.6667L22.4172 27.6651V41.9849H28.7513V27.662L33.6065 27.6604L34.3333 21.3031Z" stroke="#F2F6FC" stroke-opacity="0.8" stroke-width="2"/>
</svg>
